build/images/fb-icons/checkbox-fill.svg

<svg xmlns="http://www.w3.org/2000/svg" preserveAspectRatio="xMidYMid" width="22" height="22" viewBox="0 0 22 22"><defs><style>.cls-1{fill:#e84c3d;fill-rule:evenodd}</style></defs><path d="M18 22H4a4 4 0 0 1-4-4V4a4 4 0 0 1 4-4h14a4 4 0 0 1 4 4v14a4 4 0 0 1-4 4zM15.695 7.318a1.017 1.017 0 0 0-1.477 0l-4.81 5.059-1.626-1.692a1.017 1.017 0 0 0-1.477 0 1.102 1.102 0 0 0-.306.768c0 .291.109.564.306.769l2.365 2.46a1.019 1.019 0 0 0 1.477 0l5.548-5.827a1.118 1.118 0 0 0 0-1.537z" class="cls-1"/></svg>

<svg xmlns="http://www.w3.org/2000/svg" xmlns:xlink="http://www.w3.org/1999/xlink" preserveAspectRatio="xMidYMid" width="22" height="22" viewBox="0 0 22 22">
  <defs>
    <style>
      .cls-1 {
        fill: #e84c3d;
        fill-rule: evenodd;
      }
    </style>
  </defs>
  <path d="M18.000,22.000 L4.000,22.000 C1.791,22.000 -0.000,20.209 -0.000,18.000 L-0.000,4.000 C-0.000,1.791 1.791,-0.000 4.000,-0.000 L18.000,-0.000 C20.209,-0.000 22.000,1.791 22.000,4.000 L22.000,18.000 C22.000,20.209 20.209,22.000 18.000,22.000 ZM15.695,7.318 C15.498,7.113 15.236,7.000 14.957,7.000 C14.678,7.000 14.416,7.113 14.218,7.318 L9.408,12.377 L7.782,10.685 C7.585,10.480 7.323,10.367 7.044,10.367 C6.765,10.367 6.503,10.480 6.305,10.685 C6.108,10.890 5.999,11.163 5.999,11.453 C5.999,11.744 6.108,12.017 6.305,12.222 L8.670,14.682 C8.867,14.887 9.130,15.000 9.409,15.000 C9.688,15.000 9.950,14.887 10.147,14.682 L15.695,8.855 C16.103,8.431 16.103,7.742 15.695,7.318 Z" class="cls-1"/>
</svg>
